dist/img/svg/ic_attach-icon.svg

<svg width="36" height="36" viewBox="0 0 36 36" fill="none" xmlns="http://www.w3.org/2000/svg">
<g clip-path="url(#clip0)">
<path d="M26.0722 35.1469C25.8272 35.1469 25.5764 35.1162 25.3285 35.0506L2.77825 29.0116C1.23242 28.5858 0.310749 26.9846 0.716166 25.4387L3.56137 14.8337C3.66637 14.4444 4.06596 14.2183 4.45387 14.3175C4.84325 14.421 5.07367 14.8221 4.97012 15.21L2.12637 25.8121C1.92367 26.585 2.38742 27.39 3.16179 27.6044L25.7033 33.6404C26.4776 33.8446 27.2768 33.3837 27.478 32.6137L28.617 28.3933C28.722 28.0039 29.1216 27.7721 29.511 27.8785C29.9003 27.9835 30.1293 28.3846 30.0257 28.7725L28.8883 32.9871C28.5455 34.285 27.3643 35.1469 26.0722 35.1469Z" fill="#9B9B9B"/>
<path d="M32.7031 26.3971H9.36979C7.76125 26.3971 6.45312 25.0889 6.45312 23.4804V5.98039C6.45312 4.37185 7.76125 3.06372 9.36979 3.06372H32.7031C34.3117 3.06372 35.6198 4.37185 35.6198 5.98039V23.4804C35.6198 25.0889 34.3117 26.3971 32.7031 26.3971ZM9.36979 4.52205C8.56625 4.52205 7.91146 5.17685 7.91146 5.98039V23.4804C7.91146 24.2839 8.56625 24.9387 9.36979 24.9387H32.7031C33.5067 24.9387 34.1615 24.2839 34.1615 23.4804V5.98039C34.1615 5.17685 33.5067 4.52205 32.7031 4.52205H9.36979Z" fill="#9B9B9B"/>
<path d="M13.7448 13.2721C12.1362 13.2721 10.8281 11.9639 10.8281 10.3554C10.8281 8.74685 12.1362 7.43872 13.7448 7.43872C15.3533 7.43872 16.6615 8.74685 16.6615 10.3554C16.6615 11.9639 15.3533 13.2721 13.7448 13.2721ZM13.7448 8.89705C12.9412 8.89705 12.2865 9.55185 12.2865 10.3554C12.2865 11.1589 12.9412 11.8137 13.7448 11.8137C14.5483 11.8137 15.2031 11.1589 15.2031 10.3554C15.2031 9.55185 14.5483 8.89705 13.7448 8.89705Z" fill="#9B9B9B"/>
<path d="M7.28471 24.8366C7.09804 24.8366 6.91137 24.7652 6.76846 24.6237C6.48408 24.3393 6.48408 23.8771 6.76846 23.5927L13.6562 16.705C14.4816 15.8796 15.9239 15.8796 16.7493 16.705L18.7997 18.7554L24.4755 11.945C24.8882 11.4506 25.4949 11.1633 26.1409 11.1575H26.157C26.7957 11.1575 27.4009 11.4346 27.818 11.9202L35.4451 20.8189C35.7076 21.1237 35.6726 21.5846 35.3663 21.8471C35.0616 22.1096 34.6022 22.076 34.3382 21.7683L26.7111 12.8696C26.5697 12.7062 26.3743 12.6158 26.157 12.6158C26.0053 12.6027 25.7384 12.7077 25.597 12.8783L19.4093 20.3027C19.278 20.4602 19.087 20.555 18.8814 20.5637C18.6743 20.5783 18.4774 20.4966 18.333 20.3508L15.7182 17.736C15.4426 17.4618 14.9628 17.4618 14.6872 17.736L7.7995 24.6237C7.65804 24.7652 7.47137 24.8366 7.28471 24.8366Z" fill="#9B9B9B"/>
</g>
<defs>
<clipPath id="clip0">
<rect width="35" height="35" fill="white" transform="translate(0.620117 0.146973)"/>
</clipPath>
</defs>
</svg>

<svg width="36" height="36" viewBox="0 0 36 36" fill="none" xmlns="http://www.w3.org/2000/svg"><g clip-path="url(#clip0)" fill="#9B9B9B"><path d="M26.072 35.147a2.91 2.91 0 01-.744-.096l-22.55-6.04A2.943 2.943 0 01.716 25.44l2.845-10.605a.73.73 0 011.409.376L2.126 25.812a1.48 1.48 0 001.036 1.792l22.541 6.036a1.452 1.452 0 001.775-1.026l1.139-4.22a.728.728 0 01.894-.515.73.73 0 01.515.893l-1.138 4.215a2.913 2.913 0 01-2.816 2.16z"/><path d="M32.703 26.397H9.37a2.92 2.92 0 01-2.917-2.917V5.98A2.92 2.92 0 019.37 3.064h23.333A2.92 2.92 0 0135.62 5.98v17.5a2.92 2.92 0 01-2.917 2.917zM9.37 4.522A1.46 1.46 0 007.91 5.98v17.5a1.46 1.46 0 001.46 1.46h23.333a1.46 1.46 0 001.458-1.459V5.98a1.46 1.46 0 00-1.458-1.458H9.37z"/><path d="M13.745 13.272a2.92 2.92 0 01-2.917-2.917 2.92 2.92 0 012.917-2.916 2.92 2.92 0 012.917 2.916 2.92 2.92 0 01-2.917 2.917zm0-4.375a1.46 1.46 0 00-1.458 1.458 1.46 1.46 0 001.458 1.459 1.46 1.46 0 001.458-1.459 1.46 1.46 0 00-1.458-1.458zm-6.46 15.94a.73.73 0 01-.516-1.244l6.887-6.888c.826-.825 2.268-.825 3.093 0l2.05 2.05 5.677-6.81a2.19 2.19 0 011.665-.787h.016c.639 0 1.244.277 1.661.762l7.627 8.899a.728.728 0 11-1.107.95l-7.627-8.9a.721.721 0 00-.554-.253c-.152-.013-.419.092-.56.262l-6.188 7.425a.726.726 0 01-.528.26.702.702 0 01-.548-.212l-2.615-2.615a.749.749 0 00-1.03 0l-6.889 6.888a.726.726 0 01-.514.213z"/></g><defs><clipPath id="clip0"><path fill="#fff" transform="translate(.62 .147)" d="M0 0h35v35H0z"/></clipPath></defs></svg>
